X:14
T:As With Gladness, Men of Old
R:March
C:William Chatterton Dix, 1859
O:England
Z:Paul Hardy's Xmas Tunebook 2012 (see www.paulhardy.net). Creative Commons cc by-nc-sa licenced.
M:4/4
L:1/4
Q:1/4=140
K:G
"G"GF/2G/2 A G|"C"c c "G"B2|"Em"E F G E|"G"D D D2:|
"G"B A G B|"D"d3/2 c/2 B2|"Em"E F "C"G c|"G"B A G2|
W:
W:1.As with gladness, men of old
W:Did the guiding star behold
W:As with joy they hailed its light
W:Leading onward, beaming bright
W:So, most glorious Lord, may we
W:Evermore be led to Thee.
W:
W:
W:2.As with joyful steps they sped
W:To that lowly manger bed
W:There to bend the knee before
W:Him Whom Heaven and earth adore;
W:So may we with willing feet
W:Ever seek Thy mercy seat.
W:
W:
W:3.As they offered gifts most rare
W:At that manger rude and bare;
W:So may we with holy joy,
W:Pure and free from sin’s alloy,
W:All our costliest treasures bring,
W:Christ, to Thee, our heavenly King.
W:
W:
W:4.Holy Jesus, every day
W:Keep us in the narrow way;
W:And, when earthly things are past,
W:Bring our ransomed souls at last
W:Where they need no star to guide,
W:Where no clouds Thy glory hide.
W:
W:
W:5.In the heavenly country bright,
W:Need they no created light;
W:Thou its Light, its Joy, its Crown,
W:Thou its Sun which goes not down;
W:There forever may we sing
W:Alleluias to our King!

